packages/foundations/assets/icons/functional/images/editing/bin_16.svg

<svg width="16" height="16" viewBox="0 0 16 16" fill="none" xmlns="http://www.w3.org/2000/svg">
<g clip-path="url(#clip0_2204_2785)">
<path fill-rule="evenodd" clip-rule="evenodd" d="M1.6 6.40001C1.6 5.95001 1.95 5.60001 2.4 5.60001H3.2C4.075 5.60001 4.8 6.40001 4.8 7.20001V12.8H11.225V7.20001C11.225 6.40001 11.95 5.60001 12.8 5.60001H13.6C14.05 5.60001 14.4 5.95001 14.4 6.40001C14.4 6.85001 14.05 7.20001 13.6 7.20001H12.825V12.95C12.825 13.8004 12.0515 14.4 11.225 14.4H4.8C3.94853 14.4 3.2 13.8004 3.2 12.95V7.20001H2.4C1.95 7.20001 1.6 6.85001 1.6 6.40001ZM1.6 4.00001C1.6 3.55001 1.95 3.20001 2.4 3.20001H5.6V2.40001C5.6 1.95001 5.95 1.60001 6.4 1.60001H9.6C9.8 1.60001 10.025 1.67501 10.175 1.82501C10.325 1.97501 10.4 2.17501 10.4 2.40001V3.20001H13.6C14.05 3.20001 14.4 3.55001 14.4 4.00001C14.4 4.45001 14.05 4.80001 13.6 4.80001H2.4C1.95 4.80001 1.6 4.45001 1.6 4.00001ZM5.6 11.2V7.20001C5.6 6.75001 5.95 6.40001 6.4 6.40001C6.85 6.40001 7.2 6.75001 7.2 7.20001V11.2C7.2 11.625 6.85 12 6.4 12C6.2 12 5.975 11.9 5.825 11.75C5.675 11.6 5.6 11.4 5.6 11.2ZM8.8 11.2V7.20001C8.8 6.75001 9.15 6.40001 9.6 6.40001C10.05 6.40001 10.4 6.75001 10.4 7.20001V11.2C10.4 11.625 10.05 12 9.6 12C9.4 12 9.175 11.9 9.025 11.75C8.875 11.6 8.8 11.4 8.8 11.2Z" fill="#1A1C1F"/>
</g>
<defs>
<clipPath id="clip0_2204_2785">
<rect width="16" height="16" fill="white"/>
</clipPath>
</defs>
</svg>

<svg xmlns="http://www.w3.org/2000/svg" width="16" height="16" fill="none"><g clip-path="url(#a)"><path fill="#1A1C1F" fill-rule="evenodd" d="M1.6 6.4c0-.45.35-.8.8-.8h.8c.875 0 1.6.8 1.6 1.6v5.6h6.425V7.2c0-.8.725-1.6 1.575-1.6h.8c.45 0 .8.35.8.8s-.35.8-.8.8h-.775v5.75c0 .85-.773 1.45-1.6 1.45H4.8c-.851 0-1.6-.6-1.6-1.45V7.2h-.8a.79.79 0 0 1-.8-.8m0-2.4c0-.45.35-.8.8-.8h3.2v-.8c0-.45.35-.8.8-.8h3.2c.2 0 .425.075.575.225s.225.35.225.575v.8h3.2c.45 0 .8.35.8.8s-.35.8-.8.8H2.4a.79.79 0 0 1-.8-.8m4 7.2v-4c0-.45.35-.8.8-.8s.8.35.8.8v4c0 .425-.35.8-.8.8-.2 0-.425-.1-.575-.25a.78.78 0 0 1-.225-.55m3.2 0v-4c0-.45.35-.8.8-.8s.8.35.8.8v4c0 .425-.35.8-.8.8-.2 0-.425-.1-.575-.25a.78.78 0 0 1-.225-.55" clip-rule="evenodd"/></g><defs><clipPath id="a"><path fill="#fff" d="M0 0h16v16H0z"/></clipPath></defs></svg>
